X:29
T:Vivre (two-finger accordion)
I:last changed 14/2/2016
F:http://www.campin.me.uk/Music/Edinbal.abc
C:Stephane Delicq
M:5/4
L:1/4
Q:3/4=100
P:ABACDAB
K:AMin
P:A
"Am"[ec][ec]z "Am/E"[dB] [dB] |"Am"[cA][cA]z "Am/E"[BD][BD]|\
"Am"[AC][AC]z "G   "[GB,][GB,]|"C "[E3-C3-]        [E2C2] :|
P:B
"F" [a3f3]     "C/G"[ge][ge]|"F "[a3f3] "C/G"[ge][ge]|\
"F" [a3f3]     "C/G"[ge][ge]|"C "[e3-c3-]    [e2c2]  |
"Dm"[f2d2][ec]      [fd][ec]|"Am"[dB][c2A2]  [cA][dB]|\
"E" [cE][B2D2] "E/B"[BD][cE]|"Am"[A3-C3-]    [A2C2] ||
P:C
"Am"[E2c2][Fd] "E"[Ec][DB]|"Am"[C2A2][CA] "E"[DB][DB]|\
"Am"[E2c2][Ec] "E"[DB][DB]|"Am"[E3c3]   "Am/E"z2    :|
P:D
"Dm"[F2d2][Fd] "Am  "[Ec][Ec]|"Dm"[F2d2][Fd] "Am  "[Ec]        [Ec]|\
"Dm"[F2d2][Fd] "E   "[DB][DB]|"Am"[E3c3]     "Am/E" z2             |
"Dm"[F2d2][Ec] "Dm/A"[Fd][Ec]|"Am"[DB][C2A2] "Am/E"[C/A/][C/B/][Ec]|\
"E "[B,3-^G3-] "E/B "[B,2G2] |"Am"[C3A3]            z2            ||

